src/icons/svgs/16/eye.svg

<svg width="16" height="16" viewBox="0 0 16 16" fill="none" xmlns="http://www.w3.org/2000/svg">
<path d="M14.9149 7.60045C13.5976 4.86384 10.9872 3 8 3C5.01285 3 2.40219 4.86607 1.08432 7.60045C1.03799 7.71875 1 7.88839 1 8C1 8.11109 1.03797 8.28125 1.08432 8.38013C2.40292 11.1362 5.01285 13 8 13C10.9872 13 13.5976 11.1344 14.9149 8.39955C14.9611 8.28125 15 8.09152 15 8C15 7.88839 14.9611 7.71875 14.9149 7.60045ZM11.5 8C11.5 9.77344 9.93302 11.2143 8.00243 11.2143C6.07014 11.2143 4.5 9.77455 4.5 8C4.5 6.22545 6.06771 4.78571 8 4.78571C9.93229 4.78571 11.5 6.22545 11.5 8ZM8 5.85714C7.9441 5.85714 7.86389 5.86607 7.7934 5.875C7.92222 6.08036 8 6.31696 8 6.57143C8 7.36049 7.30365 8 6.44444 8C6.16736 8 5.88785 7.92634 5.68368 7.81027C5.67639 7.87723 5.66667 7.94643 5.66667 8C5.66667 9.16295 6.71181 10.1429 8 10.1429C9.28819 10.1429 10.3333 9.18326 10.3333 8.00022C10.3333 6.81719 9.26632 5.85714 8 5.85714Z" fill="black"/>
</svg>

<svg width="16" height="16" viewBox="0 0 16 16" xmlns="http://www.w3.org/2000/svg">
    <path d="M14.915 7.6C13.598 4.864 10.987 3 8 3S2.402 4.866 1.084 7.6A1.272 1.272 0 0 0 1 8c0 .111.038.281.084.38C2.403 11.136 5.013 13 8 13c2.987 0 5.598-1.866 6.915-4.6.046-.119.085-.308.085-.4 0-.112-.039-.281-.085-.4zM11.5 8c0 1.773-1.567 3.214-3.498 3.214C6.07 11.214 4.5 9.774 4.5 8c0-1.775 1.568-3.214 3.5-3.214S11.5 6.226 11.5 8zM8 5.857c-.056 0-.136.01-.207.018.13.205.207.442.207.696C8 7.361 7.304 8 6.444 8c-.277 0-.556-.074-.76-.19-.008.067-.017.136-.017.19 0 1.163 1.045 2.143 2.333 2.143 1.288 0 2.333-.96 2.333-2.143 0-1.183-1.067-2.143-2.333-2.143z"/>
</svg>
